X:680
T:Pigeon On The Gate #2, The
C:Joe Buchanan's Scottish Tome - Page 209.3
I:209 3
Z:Carl Allison
R:Reel
L:1/8
M:4/4
K:A
af | "A"eA ((3AAA) (AB)cd | "A"eA  ((3AAA) "D"a2>f2 | "A"eA ((3AAA) (AB)cd | "A"ef=ge "G"d2 cd | 
"A"eA ((3AAA) (AB)cd | "A"eA ((3AAA) "D"(a2>f2) | "A"eA ((3AAA) (AB)cd | "A"ef=ge "G"d2 :| 
cd | "A"eaaf "G"=gfed | "A"eaag "G"(=g2>f2) | "A"eaaf "G"=gfed | "A"ef=ge "G"d2 (cd) | 
"A"eaaf "G"=gfed | "A"eaag "G"=g2 (fg) | "A"af"G"=ge "D"fd"A"ec | "G"B=GGB "D"d2 :|
W:Errata: Added a natural to the G in the last measure. 

